public/assets/images/shapes/faqrose1.svg

<svg xmlns="http://www.w3.org/2000/svg" width="375" height="87" viewBox="0 0 375 87">
  <path fill="#FFDBDF" fill-rule="evenodd" d="M288.544386,31.4265941 C251.512439,34.4643253 214.240835,32.6517182 177.143055,33.6208634 C136.735118,34.6759114 95.4707676,39.9165597 58.5167818,57.1928268 C47.3268116,62.4242507 36.65196,68.7003451 25.3488023,73.6988512 C19.8020374,76.1514055 13.9792336,78.549766 8.03457994,79.8561806 C7.09327574,80.0631545 2.87473147,81.2946204 2.6423308e-14,81.7708333 L-5.68434189e-14,87 L375,87 L375,7.81597009e-14 C369.814165,4.66642548 362.119147,10.0535122 350.745536,16.0465308 C331.650921,26.1075379 309.83634,29.6802879 288.544386,31.4265941 Z"/>
</svg>

<svg xmlns="http://www.w3.org/2000/svg" width="375" height="87"><path fill="#FFDBDF" fill-rule="evenodd" d="M288.544 31.427c-37.032 3.037-74.303 1.225-111.4 2.194-40.409 1.055-81.673 6.296-118.627 23.572-11.19 5.231-21.865 11.507-33.168 16.506-5.547 2.452-11.37 4.85-17.314 6.157-.942.207-5.16 1.439-8.035 1.915V87h375V0c-5.186 4.666-12.88 10.054-24.254 16.047-19.095 10.06-40.91 13.633-62.202 15.38Z"/></svg>
